X:155
T: Over the Hill
S: "Ceol Rince na hEireann" 1/158
Z: B.Black
L: 1/8
M: 4/4
R: reel
K: D
D2 FA D2 FA|dfed cABc|d2 cA (3Bcd AF|GBAF GFEF|
D2 FA D2 FA|dfed cABc|d2 cA (3Bcd AF|GBAG FD D2 :|
a2 fd faaf|gfed cdef|a2 fd faaf|bgeg fddf|
a2 fd faaf|gfed cdef|afge fded|cAGE FD D2 :|


